packages/foundations/assets/icons/functional/images/transportation/bike_trailer_16_inverted.svg

<svg width="16" height="16" viewBox="0 0 16 16" fill="none" xmlns="http://www.w3.org/2000/svg">
<g clip-path="url(#clip0_2214_6662)">
<path fill-rule="evenodd" clip-rule="evenodd" d="M5.13165 9.64313C5.79439 9.64313 6.33165 10.1804 6.33165 10.8431C6.33165 11.5059 5.79439 12.0431 5.13165 12.0431C4.4689 12.0431 3.93165 11.5059 3.93165 10.8431C3.93165 10.1804 4.4689 9.64313 5.13165 9.64313ZM4.92345 3.9909C5.13165 4.01793 6.17624 4.28503 7.4625 4.84906C8.90628 5.65314 10.0311 6.49674 10.836 7.3871C11.0254 7.59654 11.0656 7.9012 10.9371 8.15261L9.9687 10.0833C9.85331 10.3091 9.62192 10.4519 9.3684 10.4538C8.3173 10.4579 7.6834 10.4579 7.46673 10.4538C7.38316 9.34547 6.26545 8.44313 5.13165 8.44313C4.18874 8.44313 3.37283 8.98689 2.98039 9.77794L2.45908 9.71881C2.15222 9.68405 1.90732 9.44687 1.86275 9.14128C1.73281 8.20186 1.66785 7.65065 1.66785 7.48764C1.66785 7.32464 1.7815 6.81663 2.0088 5.96361C2.30538 4.62982 3.5917 3.772 4.92345 3.9909ZM14.312 9.15599C14.398 9.49183 14.203 9.89987 13.8218 9.98333L12.1002 10.4238C11.7364 10.5169 11.366 10.2975 11.2729 9.93363C11.1869 9.59778 11.3722 9.21255 11.7631 9.10629L13.4847 8.66577C13.8485 8.57268 14.2189 8.79216 14.312 9.15599ZM3.31905 5.34803L2.88354 6.62632C2.7638 6.98228 2.95528 7.3679 3.31124 7.48764C3.63981 7.59818 3.99366 7.44352 4.14034 7.1391L4.38565 6.42713C5.19766 6.58299 5.83007 6.7927 6.28287 7.05626L7.58235 7.82652C7.90455 8.01947 8.32216 7.9147 8.51511 7.59251C8.69199 7.29716 8.61869 6.92164 8.35707 6.71248L7.22503 6.0273C6.61796 5.66374 5.96032 5.39354 5.27419 5.22523L4.06533 4.97639C3.75765 4.91474 3.45193 5.07155 3.31905 5.34803Z" fill="#1A1C1F"/>
</g>
<defs>
<clipPath id="clip0_2214_6662">
<rect width="16" height="16" fill="white"/>
</clipPath>
</defs>
</svg>

<svg xmlns="http://www.w3.org/2000/svg" width="16" height="16" fill="none"><g clip-path="url(#a)"><path fill="#1A1C1F" fill-rule="evenodd" d="M5.132 9.643a1.2 1.2 0 1 1 0 2.4 1.2 1.2 0 0 1 0-2.4m-.209-5.652c.209.027 1.253.294 2.54.858q2.165 1.205 3.373 2.538c.19.21.23.514.101.766l-.968 1.93a.68.68 0 0 1-.6.37q-1.578.008-1.902 0c-.084-1.108-1.202-2.01-2.335-2.01A2.4 2.4 0 0 0 2.98 9.778l-.52-.06a.68.68 0 0 1-.597-.577q-.195-1.41-.195-1.653t.34-1.524A2.56 2.56 0 0 1 4.924 3.99m9.389 5.165c.086.336-.109.744-.49.827l-1.722.44a.68.68 0 1 1-.337-1.317l1.722-.44a.68.68 0 0 1 .827.49M3.319 5.348l-.435 1.278a.68.68 0 0 0 1.256.513l.246-.712q1.218.234 1.897.63l1.3.77a.68.68 0 0 0 .774-1.115l-1.132-.685a7 7 0 0 0-1.95-.802l-1.21-.249a.68.68 0 0 0-.746.372" clip-rule="evenodd"/></g><defs><clipPath id="a"><path fill="#fff" d="M0 0h16v16H0z"/></clipPath></defs></svg>
